X:1
T:Title
%%score { ( 1 4 ) | ( 2 3 ) }
L:1/8
M:9/8
K:Ab
V:1 treble nm="Grand Piano"
V:4 treble 
V:2 bass 
V:3 bass 
V:1
 z3 z3[Q:1/4=100] .[CA]2 [A,CF] | [A,DF]3 [G,DE]3 EFG | [CA]3 [CA]3 B2 B | B3 A3 GAB | %4
[M:3/4] [Ec]6 |[M:3/8] A z z |[M:9/8] [A,DF]3 [G,DE]3 EFG | A3 c3 [Fd]2 [Fc] | %8
 [FB]3 [FB]3 [CEA]2 [B,DG] |[M:3/4] [A,CA]6 |[M:3/8] EEE |[M:9/8] d3 B3 AGA | c3 B3 BBB | %13
 [=DB]3 [DA]3 [DG]2 [DF] |[M:3/4] E6 |[M:3/8] z FG |[M:9/8] [CA]3 [DB]3 [Ec][Fd][Ec] | %17
 [FB]3 [FB]3 [FA]GF | E3 c3 c2 B |[M:3/4] [CA]6 |] %20
V:2
 z3 z3 z GA,, | B,,3 B,,3 [E,G,D]2 [E,B,D] | [A,,A,]3 [A,,A,]3 [E,G,E]2 [E,G,E] | %3
 [E,G,D]3 [E,A,C]3 [E,B,E]2 [E,G,E] |[M:3/4] [A,,A,]6 |[M:3/8] z GA,, | %6
[M:9/8] B,,3 B,,3 [E,G,D]2 [E,B,D] | [F,A,C]3 [E,A,E]3 [D,A,]2 [D,A,] | [D,D]3 [D,D]3 E,2 E, | %9
[M:3/4] A,,6 |[M:3/8] E,2 E, |[M:9/8] [E,G,E]3 [E,G,E]3 CB,[E,CE] | [E,A,E]3 [E,G,E]3 EE[E,G,E] | %13
 [B,,F,]3 [B,,B,]3 [B,,B,]2 [B,,A,] |[M:3/4] [E,G,]6 |[M:3/8] [E,G,][E,A,][E,B,D] | %16
[M:9/8] [A,,A,]3 [A,,A,]3 [A,,A,]2 [A,,A,] | [D,A,]3 [D,A,]3 [D,A,][D,B,][=D,_C] | %18
 [E,C]3 [E,A,E]3 [E,G,E]2 [E,G,D] |[M:3/4] [A,,A,]6 |] %20
V:3
 z3 z3 .[A,,D,]3 | x9 | x9 | x9 |[M:3/4] x6 |[M:3/8] [A,,E,]2 z |[M:9/8] x9 | x9 | x9 |[M:3/4] x6 | %10
[M:3/8] x3 |[M:9/8] z3 z3 .[E,E]3 | z3 z3 .[E,G,]3 | x9 |[M:3/4] x6 |[M:3/8] x3 |[M:9/8] x9 | x9 | %18
 x9 |[M:3/4] x6 |] %20
V:4
 x9 | x9 | x9 | x9 |[M:3/4] x6 |[M:3/8] C2 [A,CF] |[M:9/8] x9 | x9 | x9 |[M:3/4] x6 |[M:3/8] x3 | %11
[M:9/8] x9 | x9 | x9 |[M:3/4] x6 |[M:3/8] E2 z |[M:9/8] x9 | x9 | x9 |[M:3/4] x6 |] %20

